X:1
T:The Art of Fugue Contrapunctus I
T:BWV 1080
T:J. S. Bach Arranged for String Quartet by Henry Miller
%%score 1 2 3 4
L:1/8
Q:1/4=132
M:2/2
K:F
V:1 treble nm="Violin" snm="Vln."
V:2 treble nm="Violin" snm="Vln."
V:3 alto nm="Viola" snm="Vla."
V:4 bass nm="Violoncello" snm="Vc."
V:1
"^Allegro" z8 | z8 | z8 | z8 | A4 d4 | c4 A4 | ^G4 A2 =B2 | c4- cdcB | AD d4 ^c2 | dA c3 A B2- | %10
 BE A6- | A c2 =B c4- | cD c3 A =B2- | B2 A^G A4 | =B4 c2 d2 | GB A3 BAG- | GEFD B4- | BG A2 d4- | %18
 d=B c2 f4- | fd e2 A2 d2- | d=B c2 F2 _B2 | A4 D2 G2- | GEFd E4- | ED A4 G2 | A4 z4 | z8 | z8 | %27
 z8 | A4 e4 | c4 A4 | ^G4 A2 =B2 | c4- cdcB | A2 z2 z2 A2- | AcBA BAG^F | G3 B E3 ^F | G3 E ^C3 A | %36
 D3 F E3 c | F3 A G3 e | A3 c =B3 g | ^c4 d2 e2- | e^c d2- d3 e | fe g3 fed | ^cA d3 =B =c2- | %43
 c2 B2 A2 z2 | z8 | z8 | z8 | z8 | e4 a4 | f4 d4 | ^c4 d2 e2 | f4- fgfe | d3 e ^c2 df | B4- BBAG | %54
 F4 B4 | A6 e2- | e^cde fd g2- | geag fed^c | dcBA G4- | GEFD A4- | A^FGB c4- | cABd _e2 d2 | %62
 ^c2 a3 d g2- | g_d f3 =d e2- | e^c d3 =B =c2- | c2 B2 A3 A | dfeg fe d2- | d f2 e fd e2- | %68
 edc=B c3 a | g^fgb ^c2 z2 | z4 d2 z2 | z4 d4- | d4- d=B ^c2 | d3 c B3 A | D4 z GAc- | %75
 cBc _e2 d^fa- | ag/a/b^c d4- | !fermata!d8 |] %78
V:2
 D4 A4 | F4 D4 | ^C4 D2 E2 | F4- FGFE | D2 E2 F2 G2 | A2 A,=B, CA, F2- | F=B, E2- EFED | %7
 E2 ^F2 G4- | G2 F2 E4 | D3 E F3 D | G3 G FED^C | D2 G4 C2 | F3 E F3 ^G, | E6 DC | DFED C2 z2 | %15
 z8 | z8 | z8 | z8 | z8 | z8 | z8 | D4 A4 | F4 D4 | ^C4 D2 E2 | F4- FGFE | D2 G3 E F2 | %27
 E2 A3 ^F G2 | ^F3 d ^G4 | A2 z A, C2 A,2 | D2 F2 E2 D2 | C2 A4 D2 | E2 A3 GFE | D8- | %34
 DD G3 G C2- | CA, B,2 A,4- | A,F G,2 C4- | CA, =B,2 E4- | E^C D2 G4- | GA B2 A4- | A4- AF G2 | %41
 A3 B A2 G2- | G2 FD A3 G | ^FD G3 E =F2- | FD G3 E A2- | AF B3 G A2- | AF G4 FD | A4 d4- | %48
 d^c=Bc dA e2- | eA d2 z F B2- | BE A3 GFE | DAd=B GE c2- | c2 B2 A4 | G3 F E4- | E2 D^C D2 G2- | %55
 G3 F E3 E | A6 GB | A4- AGFE | D6 E2 | A,2 z4 _E2 | D4 z2 ^F2 | G^F G2 z2 B2- | BAfd =B2 e^c | %63
 A2 dA B3 G | A3 F E3 G | ^FD G3 E =F2- | Fd c2- c3 c | BA ^G2 A3 E | A2 G4- Gc | A2 G4 z2 | %70
 z4 A2 z2 | z4 =B4 | A4- A3 G | ^FG A3 G c2- | c^FGB _E4 | D2 A,2 B,2 C2 | D2 G,2- G,BAG- | %77
 G^FEG !fermata!F4 |] %78
V:3
 z8 | z8 | z8 | z8 | z8 | z8 | z8 | z8 | z8 | z8 | z8 | z8 | A,4 D4 | C4 A,4 | ^G,4 A,2 =B,2 | %15
 C4- CDCB, | A,4- A,F, G,2 | C4- CA, =B,2 | E4- E^C D2 | G4- GE F2 | E3 A D3 E | ^C2 DA, =B,3 C | %22
 D2 A,6- | A,4 B,4 | z E, A,3 B,A,G, | A,2 =B,2 C4- | CA, B,2 A,2 D2- | D=B, C2 B,2 E2- | %28
 EA, D3 DC=B, | CD E3 EDC | =B,4 C2 ^G,2 | A,G,^F,E, F,2 G,2- | G,G,F,E, F,E,D,^C, | D,2 z2 z4 | %34
 z8 | z8 | z8 | z8 | z8 | E,4 A,4 | F,4 D,4 | ^C,4 D,2 E,2 | F,4- F,G,F,E, | D,6 A,F, | %44
 B,3 G, C3 A, | D2 G,2 C2 F,2 | B,2 E,2 A,4 | E,2 A,3 ^G,^F,G, | A,3 G, F,E,D,^C, | %49
 D,2 F,D, B,2 G,E, | A,3 F =B,2 ^C2 | D2 =B,G, C2 A,F, | B,D G3 E F2- | FFED ^C4 | DCB,A, G,A,B,C | %55
 DA, D3 =B, ^C2- | CEA,^C D2 B,G, | E,4 F,2 G,2 | A,4 =B,2 ^C2 | D2 z4 ^F,2 | G,A, B,2 z2 C2 | %61
 D4 z G,2 F, | E,2 z2 z4 | z2 F,D, G,3 _D, | F,3 D, A,4 | D,2 D4 A,F, | B,4- B,^G, A,2 | %67
 D4- D=B, C2 | F4- FD _E2 | D4 E2 z2 | z4 F2 z2 | z4 F4- | F2 ED E2 z2 | A,4 D4 | B,4 G,4 | %75
 ^F,4 G,2 A,2 | B,4- B,DCB, | !fermata!A,8 |] %78
V:4
 z8 | z8 | z8 | z8 | z8 | z8 | z8 | z8 | D,4 A,4 | F,4 D,4 | ^C,4 D,2 E,2 | F,4- F,G,F,E, | %12
 D,4 z4 | z2 A,,=B,, C,A,, F,2- | F,=B,, E,3 F,E,D, | E,G,^F,A, G,4 | D,6 E,D, | %17
 E,2 F,E, ^F,2 G,F, | ^G,2 A,G, A,2 B,A, | =B,2 CB, ^C2 D^G, | A,4- A,F, G,2- | G,E, F,3 D, E,2 | %22
 D,4- D,=B,, ^C,2 | D,2- D,C, B,,4 | A,,3 G,, F,,G,,F,,E,, | D,,F,,E,,D,, A,,3 F,, | %26
 B,,3 G,, D,3 F, | A,3 A,, E,,2 z2 | z4 E,4 | A,4 F,4- | F,F,E,D, C,D,C,=B,, | A,,4 D,4 | %32
 ^C,4 A,,4 | ^F,,4 G,,2 A,,2 | B,,4- B,,C,B,,A,, | G,,4- G,,E,, F,,2 | B,,4- B,,G,, A,,2 | %37
 D,4- D,=B,, C,2 | F,4- F,D, E,2 | A,,3 G, F,E,D,^C, | D,3 F,, B,,4 | A,,8- | %42
 A,,3 B,, A,,G,, A,,2 | B,,3 G,, D,4- | D,2 E,4 F,2- | F,3 D, E,3 ^C, | D,3 =B,, ^C,A,, D,2- | %47
 D,C,=B,,A,, B,,4 | A,,2 z2 z4 | z8 | z8 | z8 | z8 | z8 | z8 | D,4 A,4 | F,4 D,4 | ^C,4 D,2 E,2 | %58
 F,4- F,G,F,E, | D,4- D,_E,D,C, | B,,4- B,,C,B,,A,, | G,,6 G,,2 | A,,8- | A,,8- | A,,6 A,,2 | %65
 B,,3 G,, D,4- | D,B,, C,2 F,4- | F,D, E,2 A,4- | A,F, G,2 C4- | CA, B,4 z2 | z4 A,2 z2 | z4 ^G,4 | %72
 A,6 A,,2 | D,8- | D,8- | D,8- | D,8- | !fermata!D,8 |] %78

